X:1
T:Title
%%score { ( 1 3 ) | ( 2 4 ) }
L:1/8
M:4/4
K:G
V:1 treble nm="Grand Piano"
V:3 treble 
V:2 bass 
V:4 bass 
V:1
 z4 z2[Q:1/4=96] DD | [B,G][B,G][B,G][B,G] [B,G][B,G][B,F][B,G] | AGFE [B,D]2 [B,D][B,D] | %3
 [B,G][B,G][B,G][B,G] [B,G][DB][^CA][CE] | A6 z2 | dddd edBA | [EG][EG][DF][CE] [B,D]2 [B,D][B,D] | %7
 EEAG FcBA |[M:3/4] [B,G]6 |[M:1/4] [Gd][Gd] |[M:4/4] d4 z4 | d4 z4 | %12
 [Ge][Ge][Ge][Ge] [Gd][Gd][Fc][Fc] | [GB]6 z2 | d-[Fd-][Fd-][Fd] [DF]2 [Fd][Fd] | d4 z4 | %16
 [Ge][Ge][Ge][Ge] [Gd][Gd][CF][CF] |[M:3/4] [B,G]6 |] %18
V:2
 z4 z2 D,D, | [G,,G,][G,,G,][G,,G,][G,,G,] [G,,G,][G,,G,][G,,G,][G,,G,] | %2
 [C,E,C][C,E,C][C,G,C][C,G,C] [G,,G,]2 [G,,G,][G,,G,] | %3
 [G,,G,][G,,G,][G,,G,][G,,G,] [G,,G,][G,,G,][A,,G,][A,,G,] | %4
 [D,F,D]2 [E,G,]2 [F,A,]2[K:treble] DD | %5
 [G,B,G][G,B,G][G,B,G][G,B,G] [G,CG][G,B,G][G,DG][K:bass][G,B,D] | %6
 [C,C][C,C][C,G,][C,G,] [G,,G,]2 [G,,G,][G,,G,] | %7
 [C,G,C][C,G,C][C,E,C][C,E,C] [D,A,C][D,A,E][D,F,D][D,F,C] |[M:3/4] [G,,G,]6 | %9
[M:1/4] [G,B,][G,B,] |[M:4/4] [D,A,][D,A,][D,A,][D,A,] [D,A,]2 [D,A,][D,A,] | %11
 [G,B,G][G,B,][G,B,][G,B,] [G,DG]2 [G,B,G][G,B,G] | [C,C][C,C][C,C][C,C] [D,B,][D,B,][D,A,][D,A,] | %13
 G,2 G,G, G,2[K:treble] [G,B,G][G,B,G] | [D,A,][D,A,][D,A,][D,A,] [D,A,]2 [D,A,][D,A,] | %15
 [G,B,G][G,B,][G,B,][G,B,] [G,DG]2 [G,B,G][G,B,G] | [C,C][C,C][C,C][C,C] [D,B,][D,B,][D,A,][D,A,] | %17
[M:3/4] [G,,G,]6 |] %18
V:3
 x8 | x8 | x8 | x8 | z2 ^C2 =C2 Bc | x8 | x8 | x8 |[M:3/4] x6 |[M:1/4] x2 | %10
[M:4/4] FFFF [DF]2 [Fd][Fd] | z GGG B2 dd | x8 | z2 DD D2 dd | .F2 z2 z4 | z GGG B2 dd | x8 | %17
[M:3/4] x6 |] %18
V:4
 x8 | x8 | x8 | x8 | z4 z2[K:treble] G,2 | x7[K:bass] x | x8 | x8 |[M:3/4] x6 |[M:1/4] x2 | %10
[M:4/4] x8 | x8 | x8 | x6[K:treble] x2 | x8 | x8 | x8 |[M:3/4] x6 |] %18

